packages/kaspersky-hexa-ui-icons/src/iconsSVGs/24/Home2.svg

<svg width="24" height="24" viewBox="0 0 24 24" fill="none" xmlns="http://www.w3.org/2000/svg">
<path fill-rule="evenodd" clip-rule="evenodd" d="M11.4069 2.94494C11.7596 2.68502 12.2405 2.68502 12.5933 2.94494L22.0933 9.94494C22.5379 10.2726 22.6327 10.8986 22.3051 11.3432C21.9775 11.7878 21.3515 11.8827 20.9069 11.5551L20.0001 10.8869V18.25C20.0001 19.9069 18.6569 21.25 17.0001 21.25H7.00007C5.34321 21.25 4.00007 19.9069 4.00007 18.25V10.8869L3.09326 11.5551C2.64864 11.8827 2.02262 11.7878 1.69501 11.3432C1.36739 10.8986 1.46225 10.2726 1.90687 9.94494L11.4069 2.94494ZM12.0001 4.99215L18.0001 9.4132V18.25C18.0001 18.8023 17.5524 19.25 17.0001 19.25H16.0001V14.85C16.0001 13.9663 15.2837 13.25 14.4001 13.25H9.60007C8.71641 13.25 8.00007 13.9663 8.00007 14.85V19.25H7.00007C6.44778 19.25 6.00007 18.8023 6.00007 18.25V9.4132L12.0001 4.99215ZM10.0001 19.25H14.0001V15.25H10.0001V19.25Z" fill="black"/>
</svg>

<svg xmlns="http://www.w3.org/2000/svg" width="24" height="24" fill="none" viewBox="0 0 24 24"><path fill="#000" fill-rule="evenodd" d="M11.4069 2.945a1 1 0 0 1 1.1864 0l9.5 7c.4446.3276.5394.9536.2118 1.3982s-.9536.5395-1.3982.2119l-.9068-.6682V18.25c0 1.6569-1.3432 3-3 3h-10c-1.6569 0-3-1.3431-3-3v-7.3631l-.9068.6682c-.4447.3276-1.0707.2327-1.3983-.2119s-.2327-1.0706.2119-1.3983zm.5932 2.0471 6 4.4211V18.25c0 .5523-.4477 1-1 1h-1v-4.4c0-.8837-.7164-1.6-1.6-1.6h-4.8c-.8837 0-1.6.7163-1.6 1.6v4.4H7c-.5523 0-1-.4477-1-1V9.4132zm-2 14.2579h4v-4h-4z"/></svg>
